X:1
T:Songs
T:The Countryman
T:To Dewey Gibson
T:Songs
T:Peter Warlock
T:3. The Countryman
T:John Chalkhill
T:Creative Commons copyright waiver (CC0 1.0 Universal)
T:Creative Commons copyright waiver (CC0 1.0 Universal)
T:Creative Commons copyright waiver (CC0 1.0 Universal)
T:Creative Commons copyright waiver (CC0 1.0 Universal)
C:Peter Warlock
Z:John Chalkhill (ca.1595-1642)
Z:Creative Commons copyright waiver (CC0 1.0 Universal)
%%score 1 { ( 2 3 6 ) | ( 4 5 ) }
L:1/8
Q:1/4=106
M:2/4
K:F
V:1 treble nm="Voice"
V:2 treble nm="Piano"
V:3 treble 
V:6 treble 
V:4 bass 
V:5 bass 
V:1
"^At a brisk walking pace" z4 | z4 | z4 | z4 |!mp!!<(! c3/2 B/ A3/2 G/ | F2 C3/2 C/!<)! | %6
w: ||||Oh, the sweet con-|tent- ment The|
!>(! F3/2 A/ G3/2 F/ | C4!>)! |!mf! A3/2 G/ F/ A3/2 |!>(! G/ E3/2 C2!>)! | %10
w: coun- try- man doth|find.|High tro- lol- lie|lol- lie loe,|
!mf!!<(! F3/2 E/ F/ D3/2!<)! | (C<c- c)!mp! B | G3/2 B/ A3/2 F/ | G2 F3/2 D/ | C3/2 D/ F3/2 G/ | %15
w: High tro- lol- lie|lie! _ _ That|qui- et con- tem-|pla- tion Pos-|ses- seth all my|
 A2!p! c2 |!<(! f3/2 d/ c3/2 A/!<)! |!>(! G3/2 F/ G3/2 A/!>)! | F4 | z2 z!mp! C | c3/2 B/ A3/2 G/ | %21
w: mind: Then|care a- way And|wend a- long with|me.|For|courts are full of|
 F3/2 D/ C3/2 C/ | F3/2 A/ G3/2 F/ | C4 |!mf! A3/2 G/ F/ A3/2 |!>(! G/ E3/2 C2!>)! | %26
w: flat- ter- y, As|hath too oft been|tried;|High tro- lol- lie|lol- lie loe,|
!mf!!<(! F3/2 E/ F/ D3/2!<)! | (C<c- c)!mp! B | G/ B3/2 A3/2 F/ | D3/2 F/[Q:1/4=104] F3/2!p! D/ | %30
w: High tro- lol- lie|lie! _ _ The|ci- ty full of|wan- ton- ness, And|
 G3/2 E/ C3/2 E/ | F2[Q:1/4=106] E2 |!<(! D3/2 d/ c3/2 A/!<)! |!>(! G3/2 F/ G3/2 A/!>)! | F4 | %35
w: both are full of|pride. Then|care a- way And|wend a- long with|me.|
 z2 z!mp! C | c3/2 B/ A3/2 G/ | F3/2 D/ C3/2 C/ | F3/2 A/ G3/2 F/ | C4 |!mf! A3/2 G/ F/ A3/2 | %41
w: But|oh, the hon- est|coun- try- man Speaks|tru- ly from his|heart,|High tro- lol- lie|
!>(! G/ E3/2 C2!>)! |!mf!!<(! F3/2 E/ F/ D3/2!<)! | (C<c- c)!mp! B |!<(! G3/2 B/ A3/2 F/!<)! | %45
w: lol- lie loe,|High tro- lol- lie|lie! _ _ His|pride is in his|
 G F2!mf! D |!<(! C3/2 D/ F3/2 A/!<)! | d3 d |!<(! f3/2 d/ c3/2 A/!<)! |!>(! G3/2 F/ G3/2 A/!>)! | %50
w: til- lage, His|hors- es and his|cart: Then|care a- way And|wend a- long with|
 F4 | z2 z C |!f! c3/2 B/!mf! A3/2 G/ | F3/2 D/ C3/2!f! C/ | F3/2 A/ G3/2 F/ | C4 | %56
w: me.|The|plough- man, though he|la- bour hard, Yet|on his ho- li-|day,|
!ff! A3/2 G/ F/ A3/2 |!>(! G/ E3/2 C2!>)! |!ff!!<(! F3/2 E/ F/ D3/2!<)! | (C<c- c)!f! B | %60
w: High tro- lol- lie|lol- lie loe,|High tro- lol- lie|lie! _ _ No|
 G3/2 B/ A3/2 F/ | G3/2 F/ F3/2 D/ |!<(! C3/2 D/ F3/2 A/!<)! |!ff!!<(! d3 d!<)! | %64
w: em- per- or so|mer- ri- ly Does|pass his time a-|way; Then|
[Q:1/4=103] f3/2 d/ c3/2 A/ |!>(! G3/2 F/ G3/2 A/!>)! |!f![Q:1/4=96] F4 | z4 |] %68
w: care a- way and|wend a- long with|me.||
V:2
"^cantando"!mp! (A2 c2- | c>B G2) |!p! (A2 c2- | c>B G2) |!mp! (A2 c2- | c>B G2) | A2 (d2 | %7
 c2 G2) |!mf! (A3 F) | (G3 E) | [CF]2!<(! [=B,D]2 | [CE]2!<)! (!>![DG-]2 | [CGc]2)!mp! (B>A) | %13
 (G>F) (D<F) | [B,G]2 (F>E | D2) [DE]2 |!p! [DF]2"^cantando" (A2 | G2 B2 |!mf! A2 c2- | %19
!>(! c>B G2)!>)! | (A2 c2- | c>B G2) | A2 (d2 | c2 G2) | A4 | G4 |!<(! [CFA]2 [FG=B]2!<)! | %27
 [EGc] z (!>![DG-d]2 | [CGc]2)!mp! B>A | G>F D>F | [=B,G]2 (c>=B | A>G) ([D-E]2 |!p! [DF]2) (A2 | %33
 G2 B2 |!mf! A2 c2- |!>(! c>B) G2!>)! |!mp! (A2 c2- | c>B G2) | A2 (d2 | c2 G2) | (A3 F) | (G3 E) | %42
!<(! [CF]2 [=B,D]2!<)! | [CE] z ((!>![DG]2 | [CGc]2)) B>A | G>F (D<F) | [B,G]2 (D>F) | %47
 [DA]2 (E>G) | [Fd] z!mp! (c2- | c>B G2) |!mf! (A2!<(! c2- | c>B!<)! G2) |!mf!"_cresc." (A2 c2- | %53
 c>B G2) |!f! [FAf]2!<(! [Gg]>[Ff] | [Gc]2 G2!<)! |!ff! (A3 F) | (G3 E) | [CF]2!<(! [=B,DG]2 | %59
 [CEGc]2!<)! [Gdg]2 | [cgc']2 [Bb]>[Aa] | [Gg]>[Ff] [Dd]<[Ff] | [Gdg]2 [Ff]>[Ee] | %63
 [DFBd]2!ff! !>![CEGc]2 | !>![A,CF]2 !>![A,CFA]2 | !>![G,CFG]>!>![F,F] !>![G,EG]2 | %66
 !>!!tenuto!.[A,CF]2 c2 | .[FAcf]2 z2 |] %68
V:3
 .[A,F] z .[CF] z | .[DG] z .[CE] z | .[A,F] z .[CF] z | .[DG] z .[CE] z | .[A,F] z .[CF] z | %5
 .[DG] z .[CE] z | .[A,F] z G>F | E>D C>B, | (A,2 B,2) | (=B,2 C2) | x4 | x4 | x2 F2 | D2 C2 | %14
 x2 C2- | C2 x2 | x2 .[CE] z | .[CE] z .D z | .[DF] z .[CF] z | .[DG] z .[CE] z | %20
 .[A,F] z .[CF] z | .[DG] z .[CE] z | .[A,F] z G>F | E>D C>B, | (A,2 B,2) | (=B,2 C2) | x4 | x4 | %28
 x2 F2 | D2 C2 | x2 C2 | ^C2 x2 | x2 .[CE] z | .[CE] z .D z | .[DF] z .[CF] z | .[DG] z .[CE] z | %36
 .[A,F] z .[CF] z | .[DG] z .[CE] z | .[A,F] z G>F | E>D C>_B, | (A,2 B,2) | (=B,2 C2) | x4 | x4 | %44
 x2 F2 | D2 C2 | x2 C2 | x2 E2 | x2 .[CF] z | .[DG] z .[CE] z | .[A,F] z .[CF] z | %51
 .[DG] z .[CE] z | .[A,F] z .[CF] z | .[DGd] z .[Ee] z | x2 [Ad]2 | [Ee]>[Dd] [Cc]>[B,B] | %56
 (^C2!f! D2) | (=B,2 C2) | x4 | x4 | [B,CG]2 [cf]2 | [Ad]2 A2 | x2 c2 | x4 | x4 | x2 C>B, | %66
 x2 [DF]>[CEG] | x4 |] %68
V:4
 .F,, z .[A,,F,] z | .[B,,G,] z .C, z | .F,, z .[A,,F,] z | .[B,,G,] z .C, z | .F,, z .[A,,F,] z | %5
 .[B,,G,] z .C, z | .[F,,C,] z B,>A, | G,>F, E,>D, | ([F,,^C,]2 [B,,,D,]2) | E,4 | %10
 [D,A,]2 [G,,G,]2 | [C,G,] z ([F,_B,-]2 | [E,B,]2) [D,G,C]2 | [C,F,A,]2 [A,,D,G,]2 | D,>E, (F,2- | %15
 F,>D,) [G,B,]2 | [D,A,]2"_staccatissimo" .A,, z | .C, z .G,, z | .D,, z .A,,, z | .B,,, z .C,, z | %20
 .F,, z .[A,,F,] z | .[B,,G,] z .C, z | .[F,,C,] z B,>A, | G,>F, E,>D, | ([F,,^C,]2 [B,,D,]2) | %25
 ([G,,E,]2 [A,,C,]2) | D,2 G,,2 | C, z ([F,_B,-]2 | [E,B,]2) [D,G,C]2 | [C,F,A,]2 [A,,D,G,]2 | %30
 E,4 | F,>G, ([G,_B,]2 | [D,A,]2) .A,, z | .C, z .G,, z | .D,, z .A,,, z | .B,,, z .C,, z | %36
 .F,, z .[A,,F,] z | .[B,,G,] z .C, z | .[F,,C,] z =B,>A, | G,>F, E,>D, | ([F,,^C,]2 [B,,,D,]2) | %41
 E,4 | [D,A,]2 [G,,G,]2 | [C,G,] z ([F,_B,-]2 | [E,B,]2) [D,G,C]2 | [C,F,A,]2 [A,,D,G,]2 | %46
 (D,>E,) F,2 | (F,>G,) [B,D]2 | [D,A,] z .A,,, z | .B,,, z .C,, z | .F,, z .[A,,F,] z | %51
 .[B,,G,] z .C, z | .[F,,C,] z .[A,,F,] z | .[B,,F,G,] z .[C,B,C] z | [F,A,C]2 =B,>A, | %55
 G,>F, E,>D, | [F,,^C,F,]2 [B,,,F,,D,]2 | E,4 | [D,A,]2 [G,,F,G,]2 | [C,G,]2 [F,_B,D]2 | %60
 E,2 [D,G,CF]2 | [C,F,A,D]2 [A,,D,F,C]2 | D,>E, [A,,F,C]2 | B,>A, [B,,C,E,G,]2 | %64
 [A,,C,F,]2 [F,,C,F,]2 | [C,,C,]2 [C,,,C,,]2 | !tenuto!.[F,,,F,,]2 [C,G,B,]2 | .[F,,C,A,]2 z2 |] %68
V:5
 x4 | x4 | x4 | x4 | x4 | x4 | x2 [G,,D,]2 | C,4 | x4 | (G,,2 A,,2) | x4 | x4 | x4 | x4 | %14
 G,,2 (A,,2 | B,,2) x2 | x4 | x4 | x4 | x4 | x4 | x4 | x2 [G,,D,]2 | C,4 | x4 | x4 | x4 | x4 | x4 | %29
 x4 | G,,2 (A,,2 | B,,2) x2 | x4 | x4 | x4 | x4 | x4 | x4 | x2 [G,,D,]2 | C,4 | x4 | (G,,2 A,,2) | %42
 x4 | x4 | x4 | x4 | G,,2 A,,2 | B,,2 x2 | x4 | x4 | x4 | x4 | x4 | x4 | x2 [G,,D,]2 | C,4 | x4 | %57
 (G,,2 A,,2) | x4 | x4 | x4 | x4 | [G,,B,]2 x2 | [B,,F,]2 x2 | x4 | x4 | x4 | x4 |] %68
V:6
 x4 | x4 | x4 | x4 | x4 | x4 | x4 | x4 | x4 | x4 | x4 | x4 | x4 | x4 | x4 | x4 | x4 | x4 | x4 | %19
 x4 | x4 | x4 | x4 | x4 | x4 | x4 | x4 | x4 | x4 | x4 | x4 | x4 | x4 | x4 | x4 | x4 | x4 | x4 | %38
 x4 | x4 | x4 | x4 | x4 | x4 | x4 | x4 | x4 | x4 | x4 | x4 | x4 | x4 | x4 | x4 | x4 | x4 | A,4 | %57
 x4 | x4 | x4 | x4 | x4 | x4 | x4 | x4 | x4 | x4 | x4 |] %68

